svgs/sharp-solid/blender-phone.svg

<svg xmlns="http://www.w3.org/2000/svg" viewBox="0 0 576 512"><!--! Font Awesome Pro 6.6.0 by @fontawesome - https://fontawesome.com License - https://fontawesome.com/license (Commercial License) Copyright 2024 Fonticons, Inc. --><path d="M153.6 44.8l-25 89.6-58.9-6.7c-12.6 41.8-12.6 86.8 0 128.6l58.9-6.7 25 89.6L84.9 384 72.4 371.2c-96.6-99-96.6-259.4 0-358.4L84.9 0l68.7 44.8zM224 352L192 0 576 0 558.5 64 400 64l-16 0 0 32 16 0 149.8 0-17.5 64L400 160l-16 0 0 32 16 0 123.6 0-17.5 64L400 256l-16 0 0 32 16 0 97.5 0L480 352l-256 0zm320 32l0 128-384 0 0-128 384 0zM352 480a32 32 0 1 0 0-64 32 32 0 1 0 0 64z"/></svg>

<svg xmlns="http://www.w3.org/2000/svg" viewBox="0 0 576 512"><!--! Font Awesome Pro 6.4.2 by @fontawesome - https://fontawesome.com License - https://fontawesome.com/license (Commercial License) Copyright 2023 Fonticons, Inc. --><path d="M153.6 44.8l-25 89.6-58.9-6.7c-12.6 41.8-12.6 86.8 0 128.6l58.9-6.7 25 89.6L84.9 384 72.4 371.2c-96.6-99-96.6-259.4 0-358.4L84.9 0l68.7 44.8zM224 352L192 0H576L558.5 64H400 384V96h16H549.8l-17.5 64H400 384v32h16H523.6l-17.5 64H400 384v32h16 97.5L480 352H224zm320 32V512H160V384H544zM352 480a32 32 0 1 0 0-64 32 32 0 1 0 0 64z"/></svg>
